icons/cairo-dark.svg

<svg width="256" height="256" viewBox="0 0 256 256" fill="none" xmlns="http://www.w3.org/2000/svg">
<rect width="256" height="256" rx="60" fill="#282828"/>
<path fill-rule="evenodd" clip-rule="evenodd" d="M115.057 48.1502C59.2185 58.2756 31.2962 121.762 61.1344 170.75C66.3782 179.358 65.7951 179.194 69.9633 173.237C75.3457 165.546 85.1866 154.341 91.9174 148.241C104.596 136.75 105.338 135.684 107.304 126.115C110.356 111.262 114.844 105.504 125.55 102.712C139.846 98.9835 164.351 102.504 164.351 108.287C164.351 109.326 164.036 109.467 162.489 109.127C157.335 107.993 148.429 111.253 145.67 115.283C144.005 117.714 143.978 119.849 145.332 141.552C145.73 147.934 145.715 148.022 144.482 146.922C138.085 141.216 123.661 143.173 106.543 152.069C97.4787 156.78 95.5478 158.687 102.182 156.376C118.833 150.577 135.322 149.56 141.969 153.921C152.347 160.731 144.91 188.68 128.433 204.788C124.329 208.8 124.488 208.961 132.116 208.517C185.177 205.428 220.348 151.448 202.493 100.502C189.806 64.3022 151.724 41.5008 115.057 48.1502ZM131.394 60.3597C124.332 62.9195 120.039 70.781 121.635 78.2337C125.471 96.1441 152.04 93.489 152.04 75.1952C152.04 64.1069 141.652 56.6424 131.394 60.3597Z" fill="#FF4A4A"/>
</svg>

<svg xmlns="http://www.w3.org/2000/svg" width="256" height="256" fill="none"><rect width="256" height="256" fill="#282828" rx="60"/><path fill="#FF4A4A" fill-rule="evenodd" d="M115.057 48.15c-55.838 10.126-83.76 73.612-53.923 122.6 5.244 8.608 4.661 8.444 8.83 2.487 5.382-7.691 15.223-18.896 21.953-24.996 12.679-11.491 13.421-12.557 15.387-22.126 3.052-14.853 7.54-20.611 18.246-23.403 14.296-3.728 38.801-.208 38.801 5.575 0 1.039-.315 1.18-1.862.84-5.154-1.134-14.06 2.126-16.819 6.156-1.665 2.431-1.692 4.566-.338 26.269.398 6.382.383 6.47-.85 5.37-6.397-5.706-20.821-3.749-37.939 5.147-9.064 4.711-10.995 6.618-4.361 4.307 16.651-5.799 33.14-6.816 39.787-2.455 10.378 6.81 2.941 34.759-13.536 50.867-4.104 4.012-3.945 4.173 3.683 3.729 53.061-3.089 88.232-57.069 70.377-108.015-12.687-36.2-50.769-59.001-87.436-52.352m16.337 12.21c-7.062 2.56-11.355 10.421-9.759 17.874 3.836 17.91 30.405 15.255 30.405-3.039 0-11.088-10.388-18.553-20.646-14.835" clip-rule="evenodd"/></svg>
